!!!!SEGMENT: pl-kk--kk-i-7--063_anonim--exaudisti-domine.krn
!!!cenid: 16xx:902
!!!COM: Anonim
!!!COM-rism: pe30004985
!!!CDT:
!!!CNT:
!!!OTL: Exaudisti Domine
!!!PDT:
!!!AGN: Sacred
!!!SMS-siglum: PL-Kk
!!!SMS-shelfmark: Kk.I.7
!!!NIFC-rismID: 300258140
!!!URL-scan: http://repozytorium.nifc.pl/skany/pl-kk-nut--i-7
!!!ONB-nifc: UWAGA: C (skan 0060-0061, s.113-114), A (0147, s.114), T(0223-0224, s.109-110), B(0310-0311, s.107-108). Następny utwór: Ecce sacerdos magnus
!!!SMS-variant:
!!!SMS-altvar:
**kern	**text	**kern	**text	**kern	**text	**kern	**text
*part4	*part4	*part3	*part3	*part2	*part2	*part1	*part1
*staff4	*staff4	*staff3	*staff3	*staff2	*staff2	*staff1	*staff1
*I"[BASSVS.]	*	*I"[TENOR.]	*	*I"[ALTVS.]	*	*I"[CANTVS.]	*
*I'[B]	*	*I'[T]	*	*I'[A]	*	*I'[C]	*
*clefF4	*	*clefC4	*	*clefC4	*	*clefC3	*
*k[b-]	*	*k[b-]	*	*k[b-]	*	*k[b-]	*
*M2/1	*	*M2/1	*	*M2/1	*	*M2/1	*
*met(C|)	*	*met(C|)	*	*met(C|)	*	*met(C|)	*
=1-	=1-	=1-	=1-	=1-	=1-	=1-	=1-
!!LO:TX:t=P:problem:all\right:global
!	!	!LO:TX:t=P:problem:kreska pseudotaktowa	!	!	!	!	!
0r	.	1rB	.	2.G/	Ex-	2r	.
*	*	*	*	*	*	*2\right	*
.	.	.	.	.	.	2.d\	Ex-
!	!	!	!	!LO:TX:t=P:problem:kreska pseudotaktowa	!	!	!
.	.	.	.	4G/	-au-	.	.
*	*	*2\right	*	*2\right	*	*	*
.	.	2.d\	Ex-	2B-\	-diſ-	.	.
.	.	.	.	.	.	4d\	-au-
.	.	.	.	2B-\	-ti	2.f\	-diſ-
.	.	4d\	-au-	.	.	.	.
=2-	=2-	=2-	=2-	=2-	=2-	=2-	=2-
!LO:TX:t=P:problem:kreska pseudotaktowa	!	!	!	!	!	!	!
1r	.	2c\	-diſ-	2.A/	Do-	.	.
.	.	.	.	.	.	4f\	-ti
!	!	!LO:TX:t=P:problem:kreska pseudotaktowa	!	!	!	!	!
.	.	2c\	-ti	.	.	2.e\	Do-
!	!	!	!	!LO:TX:t=P:problem:kreska pseudotaktowa	!	!	!
.	.	.	.	4A/	-mi-	.	.
!	!	!	!	!LO:TX:t=P:problem:kreska pseudotaktowa	!	!	!
2r	.	2.B-\	Do-	1G	-ne	.	.
.	.	.	.	.	.	4e\	-mi-
*2\right	*	*	*	*	*	*	*
2.G\	Ex-	.	.	.	.	2d\	-ne
.	.	4B-\	-mi-	.	.	.	.
=3-	=3-	=3-	=3-	=3-	=3-	=3-	=3-
!	!	!LO:TX:t=P:problem:kreska pseudotaktowa	!	!	!	!	!
.	.	1A	-ne	1r	.	2r	.
4G\	-au-	.	.	.	.	.	.
!LO:TX:t=P:problem:kreska pseudotaktowa	!	!	!	!	!	!	!
2.F\	-di-	.	.	.	.	2.a\	Ex-
*	*	*	*	*	*ij	*	*
.	.	1r	.	2.c\	Ex-	.	.
4F\	-ſti	.	.	.	.	4a\	-au-
2.E-X\	Do-	.	.	.	.	2.g\	-diſ-
.	.	.	.	4c\	-au-	.	.
=4-	=4-	=4-	=4-	=4-	=4-	=4-	=4-
.	.	2r	.	2B-\	-diſ-	.	.
8D/L	.	.	.	.	.	4g\	-ti
8C/J	.	.	.	.	.	.	.
!LO:TX:t=P:problem:kreska pseudotaktowa:między nutą a kropką	!	!	!	!	!	!	!
!	!	!	!	!LO:TX:t=P:problem:kreska pseudotaktowa	!	!	!
2.D/	.	1d	o-	2A/	-ti	2.f\	Do-
.	.	.	.	2.A/	Do-	.	.
4Eny\	.	.	.	.	.	8e\L	.
.	.	.	.	.	.	8d\J	.
2F\	.	1c\	-ra-	.	.	4c\	.
!	!	!	!	!	!	!LO:SIC:v:t=custos e	!
!	!	!	!	!LO:TX:t=P:problem:kreska pseudotaktowa	!	!LO:TX:b:t=mine	!
.	.	.	.	4A/	-mi-	4d\	.
=5-	=5-	=5-	=5-	=5-	=5-	=5-	=5-
!	!	!	!	!	!	!LO:PB:g=original	!
2.G\	.	.	.	2G/	-ne	2e-X\	.
*	*	*	*	*	*Xij	*	*
!	!	!LO:TX:t=P:problem:kreska pseudotaktowa	!	!LO:TX:t=P:problem:kreska pseudotaktowa	!	!	!
.	.	2B-\	-ti-	2G/	o-	2d\	-mi-
4G\	-mi-	.	.	.	.	.	.
!LO:TX:t=P:problem:kreska pseudotaktowa	!	!	!	!	!	!	!
1D	-ne	1A	-o-	2G/	-ra-	0d	-ne
.	.	.	.	2F/	-ti-	.	.
=6-	=6-	=6-	=6-	=6-	=6-	=6-	=6-
*	*ij	*	*	*	*	*	*
!	!	!LO:TX:t=P:problem:kreska pseudotaktowa	!	!	!	!	!
2.GG/	Ex-	1G	-nem	1B-	-o-	.	.
4GG/	-au-	.	.	.	.	.	.
!	!	!	!	!LO:TX:t=P:problem:kreska pseudotaktowa	!	!	!
2BB-/	-diſ-	2r	.	1B-	-nem	2r	.
!LO:TX:t=P:problem:kreska pseudotaktowa	!	!	!	!	!	!	!
2BB-/	-ti	1d\	Ex-	.	.	2d\	o-
=7-	=7-	=7-	=7-	=7-	=7-	=7-	=7-
2.AA/	Do-	.	.	1r	.	2eny\	-ra-
!	!	!LO:TX:t=P:problem:kreska pseudotaktowa	!	!	!	!	!
.	.	2c\	-au-	.	.	2f\	-ti-
4AA/	-mi-	.	.	.	.	.	.
!LO:TX:t=P:problem:kreska pseudotaktowa	!	!	!	!	!	!	!
1GG	-ne	2B-\	-diſ-	2.d\	ſer-	2.g\	-o-
*	*Xij	*	*	*	*	*	*
.	.	2B-\	-ti	.	.	.	.
!	!	!	!	!LO:TX:t=P:problem:kreska pseudotaktowa	!	!	!
.	.	.	.	4d\	-vi	4g\	-nem
=8-	=8-	=8-	=8-	=8-	=8-	=8-	=8-
!	!	!	!	!LO:TX:a:t=P:problem:# above	!	!	!
1r	.	2.A/	Do-	4c#X\	tu-	2e\	ſer-
.	.	.	.	2d\	.	.	.
.	.	.	.	.	.	2f\	-vi
!	!	!	!	!LO:TX:a:t=P:problem:# above	!	!	!
.	.	4A/	-mi-	4c#X\	.	.	.
!	!	!LO:TX:t=P:problem:kreska pseudotaktowa	!	!LO:TX:t=P:problem:kreska pseudotaktowa	!	!	!
2r	.	1G	-ne	1d	-i	1g	tu-
!LO:TX:t=P:problem:kreska pseudotaktowa	!	!	!	!	!	!	!
2G\	o-	.	.	.	.	.	.
=9-	=9-	=9-	=9-	=9-	=9-	=9-	=9-
2G\	-ra-	0r	.	2r	.	1d	-i
!	!	!	!	!LO:TX:a:t=P:problem:# above	!	!	!
!	!	!	!	!LO:TX:t=P:problem:kreska pseudotaktowa	!	!	!
!	!	!	!	!LO:N:acc=#	!	!	!
2G\	-ti-	.	.	2BnX\	o-	.	.
2F\	-o-	.	.	2cny\	-ra-	2r	.
!LO:SIC:v:t=custos B	!	!	!	!LO:SIC:v:t=custos d	!	!	!
!LO:TX:b:t=servi	!	!	!	!	!	!	!
!LO:TX:t=P:problem:kreska pseudotaktowa	!	!	!	!LO:TX:t=P:problem:kreska pseudotaktowa	!	!	!
2BB-/	-nem	.	.	2d\	-ti-	1f\	E-
=10-	=10-	=10-	=10-	=10-	=10-	=10-	=10-
!LO:PB:g=original	!	!	!	!LO:LB:g=original	!	!	!
2.B-\	ſer-	1r	.	2.d\	-o-	.	.
.	.	.	.	.	.	2f\	-xau-
4A\	.	.	.	4c\	-n(em)	.	.
2G\	.	2r	.	2B-y\	ſer-	2e\	-diſ-
!LO:TX:t=P:problem:kreska pseudotaktowa	!	!LO:TX:t=P:problem:kreska pseudotaktowa	!	!LO:TX:t=P:problem:kreska pseudotaktowa	!	!	!
2F\	-vi	2A/	o-	2A/	-vi	2d\	-ti
=11-	=11-	=11-	=11-	=11-	=11-	=11-	=11-
1E-X	tu-	2B-\	-ra-	1G	tu-	2d\	Do-
.	.	2G/	-ti-	.	.	2c/	-mi-
!LO:TX:t=P:problem:kreska pseudotaktowa	!	!	!	!LO:TX:t=P:problem:kreska pseudotaktowa	!	!	!
1D	-i	2G/	-o-	1A,<	-i	1d	-ne
!	!	!LO:SIC:v:t=custos G	!	!	!	!	!
!	!	!LO:TX:t=P:problem:kreska pseudotaktowa	!	!	!	!	!
.	.	2F#X/	-nem	.	.	.	.
=12-	=12-	=12-	=12-	=12-	=12-	=12-	=12-
!	!	!LO:PB:g=original	!	!	!	!	!
0r	.	2G/	ſer-	2.B-\	E-	2r	.
.	.	2E-X/	-vi	.	.	2g\	o-
.	.	.	.	4c\	-xau-	.	.
!	!	!LO:TX:t=P:problem:kreska pseudotaktowa	!	!	!	!	!
.	.	1D	tu-	2d\	-diſ-	2g\	-ra-
!	!	!	!	!LO:TX:t=P:problem:kreska pseudotaktowa	!	!LO:TX:a:t=P:problem:# above	!
.	.	.	.	2A/	-ti	2f#X\	-ti-
=13-	=13-	=13-	=13-	=13-	=13-	=13-	=13-
2.GG/	Ex-	2G,</	-i	2B-\	D(o-	2g\	-o-
.	.	1G/	Ex-	2B-\	-mi)-	2e-X\	-ne
4GG/	-aud-	.	.	.	.	.	.
2D/	-diſ-	.	.	2A/	.	2d\	ſer-
!LO:TX:t=P:problem:kreska pseudotaktowa	!	!LO:TX:a:t=P:problem:# above	!	!LO:TX:a:t=P:problem:# above	!	!	!
!	!	!LO:TX:t=P:problem:kreska pseudotaktowa	!	!LO:TX:t=P:problem:kreska pseudotaktowa	!	!	!
!	!	!	!	!LO:N:acc=#	!	!	!
2D/	-ti	2F#X/	-au-	2BnX\	.	2d\	-vi
=14-	=14-	=14-	=14-	=14-	=14-	=14-	=14-
2.C/	Do-	2G/	-diſ-	2c\	-ne	1e-X	tu-
.	.	2c\	-ti	2G/	o-	.	.
4C/	-mi-	.	.	.	.	.	.
1GG	-ne	2.B-\	Do-	2.G/	-ra-	1d	-i
!	!	!LO:TX:t=P:problem:kreska pseudotaktowa	!	!LO:TX:t=P:problem:kreska pseudotaktowa	!	!	!
.	.	4c\	.	4G/	-ti-	.	.
=15-	=15-	=15-	=15-	=15-	=15-	=15-	=15-
*	*ij	*	*	*	*	*	*
!	!	!	!	!	!	!LO:SIC:v:t=custos d	!
2.G\	Ex-	2.d\	.	2.B-y\	-o-	2r	.
!	!	!	!	!	!	!LO:LB:g=original	!
.	.	.	.	.	.	2.d\	o-
!LO:TX:t=P:problem:kreska pseudotaktowa	!	!	!	!	!	!	!
4G\	-au-	4d\	-mi-	4c\	.	.	.
!	!	!LO:TX:a:t=P:problem:# above	!	!LO:TX:t=P:problem:kreska pseudotaktowa	!	!	!
2B-\	-diſ-	2G#X/	-ne	1d	-nem	.	.
.	.	.	.	.	.	4d\	-ra-
!	!	!LO:TX:t=P:problem:kreska pseudotaktowa	!	!	!	!	!
2B-\	-ti	2d\	o-	.	.	2.fny\	-ti-
=16-	=16-	=16-	=16-	=16-	=16-	=16-	=16-
2.A\	Do-	2d\	-ra-	1r	.	.	.
.	.	.	.	.	.	8eny\L	-o-
.	.	.	.	.	.	8d\J	.
!	!	!LO:TX:a:t=P:problem:# above	!	!	!	!	!
.	.	2c#X\	-ti-	.	.	4e\	.
4A\	-mi-	.	.	.	.	4f\	.
!LO:TX:t=P:problem:kreska pseudotaktowa	!	!	!	!	!	!	!
1G	-ne	2d\	-o-	2r	.	1g	.
*	*Xij	*	*	*	*	*	*
!	!	!LO:TX:t=P:problem:kreska pseudotaktowa	!	!LO:TX:a:t=P:problem:# above	!	!	!
!	!	!	!	!LO:TX:t=P:problem:kreska pseudotaktowa	!	!	!
!	!	!	!	!LO:N:acc=#	!	!	!
.	.	2d\	-nem	2BnX\	o-	.	.
=17-	=17-	=17-	=17-	=17-	=17-	=17-	=17-
2r	.	2B-\	ſer-	2d\	-ra-	1d	-nem
2G\	o-	2B-\	-vi	2d\	-ti-	.	.
!	!	!	!	!LO:TX:t=P:problem:kreska pseudotaktowa	!	!	!
2G\	-ra-	1A	tu-	1d	-o-	1r	.
!LO:TX:t=P:problem:kreska pseudotaktowa	!	!	!	!	!	!	!
2F\	-ti-	.	.	.	.	.	.
=18-	=18-	=18-	=18-	=18-	=18-	=18-	=18-
!	!	!LO:TX:t=P:problem:kreska pseudotaktowa	!	!	!	!	!
2B-\	-o-	1Gny	-i	2d\	-n(em)	2r	.
!LO:TX:t=P:problem:kreska pseudotaktowa	!	!	!	!	!	!	!
2B-\	-nem	.	.	1d	ſer-	2g\	Ut
!	!	!LO:TX:t=P:problem:kreska pseudotaktowa	!	!	!	!	!
2.A\	ſer-	1r	.	.	.	2g\	ae-
!	!	!	!	!LO:TX:t=P:problem:kreska pseudotaktowa	!	!LO:TX:a:t=P:problem:# above	!
.	.	.	.	2c\	-vi	2f#X\	-di-
!LO:TX:t=P:problem:kreska pseudotaktowa	!	!	!	!	!	!	!
4A\	-vi	.	.	.	.	.	.
=19-	=19-	=19-	=19-	=19-	=19-	=19-	=19-
1G	tu-	2.d\	Ut	1B-y	tu-	1g	-fi-
.	.	4d\	ae-	.	.	.	.
!LO:TX:t=P:problem:kreska pseudotaktowa	!	!	!	!LO:TX:t=P:problem:kreska pseudotaktowa	!	!	!
1D	-i	2d\	-di-	1A	-i	2fny\	-ca-
!	!	!LO:TX:t=P:problem:kreska pseudotaktowa	!	!	!	!	!
.	.	2d\	-fi-	.	.	2f\	-rem
=20-	=20-	=20-	=20-	=20-	=20-	=20-	=20-
!	!	!	!	!LO:SIC:v:t=custos d	!	!	!
0r	.	2cny\	-ca-	1r	.	1e-X	tem-
!	!	!LO:SIC:v:t=custos B	!	!	!	!	!
!	!	!LO:TX:t=P:problem:kreska pseudotaktowa	!	!	!	!	!
.	.	2c\	-rem	.	.	.	.
!	!	!LO:LB:g=original	!	!LO:LB:g=original	!	!	!
.	.	1B-	tem-	2r	.	1d	-pl(um)
.	.	.	.	2.d\	Ut	.	.
=21-	=21-	=21-	=21-	=21-	=21-	=21-	=21-
0r	.	2A/	-plum	.	.	1r	.
.	.	.	.	4c\	ae-	.	.
.	.	2.G/	no-	1B-	-di-	.	.
*	*	*	*	*	*	*	*ij
.	.	.	.	.	.	1.d	Ut
.	.	4G/	-mi-	.	.	.	.
!	!	!LO:TX:t=P:problem:kreska pseudotaktowa	!	!LO:TX:t=P:problem:kreska pseudotaktowa	!	!	!
.	.	2Fny/	-ni	2A/	-fi-	.	.
=22-	=22-	=22-	=22-	=22-	=22-	=22-	=22-
2rBB	.	1E-X	tu-	2B-\	-ca-	.	.
1G	Ut	.	.	2G/	-r(em)	2c/	ae-
!	!	!LO:TX:t=P:problem:kreska pseudotaktowa	!	!	!	!	!
.	.	1D	-o	1A	tem-	2d\	-di-
!LO:SIC:v:t=custos E	!	!	!	!	!	!	!
!LO:TX:t=P:problem:kreska pseudotaktowa	!	!	!	!	!	!	!
2F\	ae-	.	.	.	.	2d\	-fi-
=23-	=23-	=23-	=23-	=23-	=23-	=23-	=23-
!LO:LB:g=original	!	!	!	!LO:TX:t=P:problem:kreska pseudotaktowa	!	!	!
2.E-X\	-di-	0r	.	1B-	-pl(um)	2g\	-ca-
.	.	.	.	.	.	2g\	-rem
4E-y\	-fi-	.	.	.	.	.	.
2E-y\	-ca-	.	.	2r	.	2g\	tem-
*	*	*	*	*	*ij	*	*
!LO:TX:t=P:problem:kreska pseudotaktowa	!	!	!	!	!	!	!
2D/	-rem	.	.	1B-\	Ut	2f\	-pl(um)
*	*	*	*	*	*	*	*Xij
=24-	=24-	=24-	=24-	=24-	=24-	=24-	=24-
1C	tem-	0r	.	.	.	2.e-X\	no-
!	!	!	!	!LO:TX:t=P:problem:kreska pseudotaktowa	!	!	!
.	.	.	.	2A/	ae-	.	.
.	.	.	.	.	.	4e-y\	-mi-
2BB-/	-pl(um)	.	.	2B-\	-di-	1d	-ni
2.B-\	no-	.	.	2d\	-fi-	.	.
=25-	=25-	=25-	=25-	=25-	=25-	=25-	=25-
!	!	!	!	!	!	!LO:SIC:v:t=custos f	!
.	.	0r	.	2d\	-ca-	2r	.
4B-\	-mi-	.	.	.	.	.	.
!LO:TX:t=P:problem:kreska pseudotaktowa	!	!	!	!LO:TX:t=P:problem:kreska pseudotaktowa	!	!LO:LB:g=original	!
2A\	-ni	.	.	2c\	-r(em)	2.f\	no-
1G	tu-	.	.	1B-	tem-	.	.
.	.	.	.	.	.	4f\	-mi-
.	.	.	.	.	.	2eny\	-ni
=26-	=26-	=26-	=26-	=26-	=26-	=26-	=26-
!LO:TX:t=P:problem:kreska pseudotaktowa	!	!	!	!	!	!	!
1F	-o	0r	.	2A/	-pl(um)	2.f\	tu-
*	*	*	*	*	*Xij	*	*
.	.	.	.	2.c\	no-	.	.
.	.	.	.	.	.	4e\	.
2r	.	.	.	.	.	1d	.
.	.	.	.	4c\	-mi-	.	.
!	!	!	!	!LO:TX:t=P:problem:kreska pseudotaktowa	!	!	!
2.G\	no-	.	.	2B-\	-ni	.	.
=27-	=27-	=27-	=27-	=27-	=27-	=27-	=27-
!	!	!LO:TX:t=P:problem:kreska pseudotaktowa	!	!	!	!	!
.	.	1r	.	1A	tu-	2d,<\	-o
4G\	-mi-	.	.	.	.	.	.
*	*	*	*	*	*	*	*ij
!LO:TX:t=P:problem:kreska pseudotaktowa	!	!	!	!	!	!	!
2F\	-ni	.	.	.	.	2.d\	no-
*lig	*	*lig	*	*	*	*	*
!	!	!	!	!LO:TX:t=P:problem:kreska pseudotaktowa	!	!	!
1E-X	tu-	1G	no-	1G	-o	.	.
.	.	.	.	.	.	4d\	-mi-
.	.	.	.	.	.	2c/	-ni
=28-	=28-	=28-	=28-	=28-	=28-	=28-	=28-
*	*	*col	*	*	*	*	*
1D	.	2.A\	.	2r	.	4.d\	tu-
.	.	.	.	.	.	8e\	.
!	!	!	!	!	!	!LO:TX:a:t=P:problem:# above	!
.	.	.	.	2.d\	no-	2f#X\	.
*	*	*Xlig	*	*	*	*	*
!	!	!LO:TX:t=P:problem:kreska pseudotaktowa	!	!	!	!	!
.	.	4A/	-mi-	.	.	.	.
*Xlig	*	*Xcol	*	*	*	*	*
!LO:TX:t=P:problem:kreska pseudotaktowa	!	!	!	!	!	!	!
1GG	-o	2B-\	-ni	.	.	1g	-o
.	.	.	.	4d\	-mi-	.	.
!	!	!	!	!LO:TX:t=P:problem:kreska pseudotaktowa:między nutą a kropką	!	!	!
.	.	2.B-\	tu-	2.d\	-ni	.	.
=29-	=29-	=29-	=29-	=29-	=29-	=29-	=29-
*	*ij	*	*	*	*	*	*
2.BB-/	no-	.	.	.	.	1r	.
.	.	4c\	.	4c\	.	.	.
!	!	!LO:TX:t=P:problem:kreska pseudotaktowa	!	!	!	!	!
.	.	2d\	.	4B-\	.	.	.
!	!	!	!	!LO:TX:t=P:problem:kreska pseudotaktowa	!	!	!
4BB-/	-mi-	.	.	4A/	.	.	.
1C	-ni	4e-X\	.	2G/	.	2g\	no-
.	.	4d\	.	.	.	.	.
!	!	!	!	!LO:TX:t=P:problem:kreska pseudotaktowa	!	!	!
.	.	4c\	.	2e-X\	.	4g\	-mi-
!	!	!LO:TX:t=P:problem:kreska pseudotaktowa	!	!	!	!	!
.	.	4B-\	.	.	.	4g\	-ni
=30-	=30-	=30-	=30-	=30-	=30-	=30-	=30-
!	!	!	!	!	!	!LO:TX:a:t=P:problem:# above	!
1D	tu-	4A/	.	1d	tu-	4f#X\	tu-
.	.	4B-\	.	.	.	2g\	.
.	.	2A/	.	.	.	.	.
!	!	!	!	!	!	!LO:TX:a:t=P:problem:# above	!
.	.	.	.	.	.	4f#X\	.
!LO:TX:t=P:problem:kreska pseudotaktowa	!	!LO:TX:t=P:problem:kreska pseudotaktowa	!	!LO:SIC:v:t=custos B	!	!	!
!	!	!	!	!LO:TX:t=P:problem:kreska pseudotaktowa	!	!	!
!	!	!	!	!LO:N:acc=#	!	!	!
1GG	-o	1G	-o	1BnX	-o	1g	-o
*	*Xij	*	*	*	*	*	*Xij
=31-	=31-	=31-	=31-	=31-	=31-	=31-	=31-
*M3/1	*	*M3/1	*	*M3/1	*	*M3/1	*
!	!	!	!	!LO:TX:t=P:problem:kreska pseudotaktowa	!	!	!
!	!	!	!	!LO:LB:g=original	!	!	!
1.G	Be-	1.B-	Be-	0.r	.	1.d	Be-
2G\	-ne-	2B-\	-ne-	.	.	2d\	-ne-
!LO:TX:t=P:problem:kreska pseudotaktowa	!	!LO:TX:t=P:problem:kreska pseudotaktowa	!	!	!	!LO:TX:t=P:problem:kreska pseudotaktowa	!
1F	-dic	1A	-dic	.	.	1d	-dic
=32-	=32-	=32-	=32-	=32-	=32-	=32-	=32-
!	!	!	!	!	!	!LO:TX:t=P:problem:kreska pseudotaktowa	!
0E-X	et	0G	et	1.B-y	Be-	0.r	.
.	.	.	.	2B-\	-ne-	.	.
!LO:TX:t=P:problem:kreska pseudotaktowa	!	!LO:TX:t=P:problem:kreska pseudotaktowa	!	!LO:TX:t=P:problem:kreska pseudotaktowa	!	!	!
1C	San-	1A	San-	1c	-dic	.	.
=33-	=33-	=33-	=33-	=33-	=33-	=33-	=33-
*	*	*	*	*	*	*	*ij
1.BB-	-cti-	1.B-	-cti-	0d	et	1.fny	Be-
2BB-/	-fi-	2B-\	-fi-	.	.	2f\	-ne-
!	!	!LO:SIC:v:t=custos B	!	!LO:TX:t=P:problem:kreska pseudotaktowa	!	!LO:TX:t=P:problem:kreska pseudotaktowa	!
!LO:TX:t=P:problem:kreska pseudotaktowa	!	!LO:TX:t=P:problem:kreska pseudotaktowa	!	!	!	!	!
1BB-	-ca	1B-	-ca	1B-	San-	1d	-dic
*	*	*	*	*	*	*	*Xij
=34-	=34-	=34-	=34-	=34-	=34-	=34-	=34-
!	!	!LO:LB:g=original	!	!	!	!LO:TX:a:t=P:problem:# above	!
00.r	.	0.r	.	1.A	-cti-	0c#X	et
.	.	.	.	2A/	-fi-	.	.
!	!	!	!	!	!	!LO:SIC:v:t=custos f	!
!	!	!	!	!LO:TX:t=P:problem:kreska pseudotaktowa	!	!LO:TX:t=P:problem:kreska pseudotaktowa	!
.	.	.	.	1G	-ca	1d	San-
=35-	=35-	=35-	=35-	=35-	=35-	=35-	=35-
*	*	*	*ij	*	*ij	*	*
!	!	!	!	!	!	!LO:LB:g=original	!
.	.	1.B-	Be-	1.d	Be-	1.f	-cti-
.	.	2B-\	-ne-	2d\	-ne-	2f\	-fi-
!	!	!	!	!LO:N:acc=#	!	!LO:TX:t=P:problem:kreska pseudotaktowa	!
!	!	!LO:TX:t=P:problem:kreska pseudotaktowa	!	!LO:TX:t=P:problem:kreska pseudotaktowa	!	!	!
.	.	1G	-dic	1BnX	-dic	1g	-ca
=36-	=36-	=36-	=36-	=36-	=36-	=36-	=36-
!LO:SIC:v:t=custos F	!	!	!	!	!	!	!
!LO:TX:t=P:problem:kreska pseudotaktowa	!	!	!	!	!	!	!
0.r	.	0A	et	0c	et	0e	do-
.	.	.	.	.	.	.	.
!	!	!LO:TX:t=P:problem:kreska pseudotaktowa	!	!LO:TX:t=P:problem:kreska pseudotaktowa	!	!LO:TX:t=P:problem:kreska pseudotaktowa	!
.	.	1D	San-	1d	San-	1d	-m(um)
=37-	=37-	=37-	=37-	=37-	=37-	=37-	=37-
*	*ij	*	*	*	*	*	*
!LO:LB:g=original	!	!	!	!	!	!	!
1.F	Be-	1.A	-cti-	1.c	-cti-	0.f	iſ-
2F\	-ne-	2A/	-fi-	2c\	-fi-	.	.
!LO:TX:t=P:problem:kreska pseudotaktowa	!	!LO:TX:t=P:problem:kreska pseudotaktowa	!	!LO:TX:t=P:problem:kreska pseudotaktowa	!	!	!
1F	-dic	1A	-ca	1c	-ca	.	.
*	*	*	*Xij	*	*Xij	*	*
=38-	=38-	=38-	=38-	=38-	=38-	=38-	=38-
!	!	!	!	!	!	!LO:TX:t=P:problem:kreska pseudotaktowa	!
0BB-	et	1.B-	Be-	1.d	Be-	0.f	-tam
.	.	2B-\	-ne-	2d\	-ne-	.	.
1BB-	San-	1B-	-dic	1d	-dic	.	.
=39-	=39-	=39-	=39-	=39-	=39-	=39-	=39-
*M2/1	*	*M2/1	*	*M2/1	*	*M2/1	*
*met(C|)	*	*met(C|)	*	*met(C|)	*	*met(C|)	*
*lig	*	*	*	*	*	*	*
1C	-cti-	2G/	et	2c\	et	2.g\	do-
!	!	!LO:TX:t=P:problem:kreska pseudotaktowa	!	!LO:TX:t=P:problem:kreska pseudotaktowa	!	!	!
.	.	2c\	San-	2e-X\	San-	.	.
!	!	!	!	!	!	!LO:TX:t=P:problem:kreska pseudotaktowa	!
.	.	.	.	.	.	4g\	-m(um)
*col	*	*	*	*	*	*	*
2.D\	.	2.A/	-cti-	2.d\	-cti-	2g\	iſ-
!	!	!	!	!	!	!LO:TX:a:t=P:problem:# above	!
.	.	.	.	.	.	2f#X\	.
*Xlig	*	*	*	*	*	*	*
!	!	!	!	!LO:TX:t=P:problem:kreska pseudotaktowa	!	!	!
4D/	-fi-	4A/	-fi-	4d\	-fi-	.	.
*Xcol	*	*	*	*	*	*	*
=40-	=40-	=40-	=40-	=40-	=40-	=40-	=40-
!	!	!LO:TX:a:t=P:problem:# above	!	!	!	!	!
!LO:TX:t=P:problem:kreska pseudotaktowa	!	!LO:N:acc=#	!	!	!	!LO:TX:t=P:problem:kreska pseudotaktowa	!
1GG	-ca	2BnX\	-ca	2d\	-ca	1g	-t(am)
*	*Xij	*	*	*	*	*	*
.	.	2.G/	Be-	4B-y\	do-	.	.
!	!	!	!	!LO:TX:t=P:problem:kreska pseudotaktowa	!	!	!
.	.	.	.	4B-\	-m(um)	.	.
2r	.	.	.	2A/	iſ-	2r	.
!	!	!LO:TX:b:t=P:problem:# below	!	!	!	!	!
.	.	4F#X/	-ne-	.	.	.	.
!	!	!LO:TX:t=P:problem:kreska pseudotaktowa	!	!LO:TX:t=P:problem:kreska pseudotaktowa	!	!	!
2.G\	Be-	2G/	-dic	2B-\	-tam	2.d\	Be-
=41-	=41-	=41-	=41-	=41-	=41-	=41-	=41-
!	!	!	!	!LO:SIC:v:t=custos d	!	!	!
.	.	2A/	et	2r	.	.	.
!LO:TX:a:t=P:problem:# above	!	!	!	!	!	!	!
4F#X\	-ne-	.	.	.	.	4d\	-ne-
!	!	!LO:TX:a:t=P:problem:# above	!	!LO:LB:g=original	!	!	!
!LO:TX:t=P:problem:kreska pseudotaktowa	!	!LO:N:acc=#	!	!LO:TX:t=P:problem:kreska pseudotaktowa	!	!	!
2G\	-dic	2BnX\	San-	2d\	et	4d\	-dic
.	.	.	.	.	.	2g\	et
4C/	et	4.c\	-cti-	2e-X\	San-	.	.
4C/	San-	.	.	.	.	4g\	San-
.	.	8Bny\	.	.	.	.	.
!	!	!	!	!	!	!LO:TX:a:t=P:problem:# above	!
4.D/	-cti-	4.A/	.	4.d\	-cti-	4.f#X\	-cti-
!	!	!	!	!LO:TX:t=P:problem:kreska pseudotaktowa	!	!	!
8D/	-fi-	8A/	-fi-	8d\	-fi-	8f#y\	-fi-
=42-	=42-	=42-	=42-	=42-	=42-	=42-	=42-
*M3/1	*	*M3/1	*	*M3/1	*	*M3/1	*
!	!	!	!	!LO:N:acc=#	!	!	!
0GG,<	-ca	0G	-ca	0BnX	-ca	0g,	-ca
!LO:TX:t=P:problem:kreska pseudotaktowa	!	!LO:TX:t=P:problem:kreska pseudotaktowa	!	!LO:TX:t=P:problem:kreska pseudotaktowa	!	!LO:TX:t=P:problem:kreska pseudotaktowa	!
1G	San-	1G	San-	1Bny	San-	1d	San-
=43-	=43-	=43-	=43-	=43-	=43-	=43-	=43-
1.Fny	-cti-	1.A	-cti-	1.c	-cti-	1.fny	-cti-
2F\	-fi-	2A/	-fi-	2c\	-fi-	2f\	-fi-
!LO:TX:t=P:problem:kreska pseudotaktowa	!	!LO:SIC:v:t=custos B	!	!LO:TX:t=P:problem:kreska pseudotaktowa	!	!LO:TX:t=P:problem:kreska pseudotaktowa	!
1F	-ca	1A	-ca	1c	-ca	1f	-ca
=44-	=44-	=44-	=44-	=44-	=44-	=44-	=44-
!	!	!LO:LB:g=original	!	!	!	!	!
!	!	!LO:TX:t=P:problem:kreska pseudotaktowa	!	!	!	!	!
0B-	do-	00.r	.	0d	do-	0f	do-
!	!	!	!	!LO:TX:a:t=P:problem:# above	!	!	!
!	!	!	!	!LO:N:acc=#	!	!LO:TX:t=P:problem:kreska pseudotaktowa	!
!LO:TX:t=P:problem:kreska pseudotaktowa	!	!	!	!LO:TX:t=P:problem:kreska pseudotaktowa	!	!	!
1G	-m(um)	.	.	1BnX	-m(um)	1g	-m(um)
=45-	=45-	=45-	=45-	=45-	=45-	=45-	=45-
0A	iſ-	.	.	0c	iſ-	0e	iſ-
!LO:TX:t=P:problem:kreska pseudotaktowa	!	!	!	!LO:TX:t=P:problem:kreska pseudotaktowa	!	!LO:TX:t=P:problem:kreska pseudotaktowa	!
1F	-tam	.	.	1A	-t(am)	1f	-t(am)
=46-	=46-	=46-	=46-	=46-	=46-	=46-	=46-
1G	in	0B-y	do-	0.r	.	1d	in
1G	ſem-	.	.	.	.	1d	Sem-
!	!	!	!	!	!	!LO:SIC:v:t=custos f	!
!LO:TX:t=P:problem:kreska pseudotaktowa	!	!	!	!	!	!LO:TX:t=P:problem:kreska pseudotaktowa	!
1E-X	-pi-	1B-	-m(um)	.	.	1g	-pi-
=47-	=47-	=47-	=47-	=47-	=47-	=47-	=47-
!	!	!	!	!	!	!LO:LB:g=original	!
0F	-ter-	0A	iſ-	1c	in	0f	-ter-
.	.	.	.	1c	Sem-	.	.
!LO:SIC:v:t=custos E	!	!LO:TX:t=P:problem:kreska pseudotaktowa	!	!LO:TX:t=P:problem:kreska pseudotaktowa	!	!LO:TX:t=P:problem:kreska pseudotaktowa	!
!LO:TX:t=P:problem:kreska pseudotaktowa	!	!	!	!	!	!	!
1D	-n(um)	1A	-t(am)	1d	-pi-	1g	-n(um)
=48-	=48-	=48-	=48-	=48-	=48-	=48-	=48-
!LO:LB:g=original	!	!	!	!	!	!	!
0E-X	De-	1G	in	0B-y	-ter-	0e-X	De-
.	.	1G	ſem-	.	.	.	.
!LO:TX:t=P:problem:kreska pseudotaktowa	!	!	!	!LO:TX:t=P:problem:kreska pseudotaktowa	!	!LO:TX:t=P:problem:kreska pseudotaktowa	!
1C	-us	1G	-pi-	1c	-n(um)	1e-y	-(us)
=49-	=49-	=49-	=49-	=49-	=49-	=49-	=49-
0D	Iſ-	0F#X	-ter-	0A	De-	0d	Iſ-
!	!	!LO:TX:t=P:problem:kreska pseudotaktowa	!	!	!	!	!
1D	-t(am)	1F#y	-n(um)	1A	-(us)	1d	-ra-
=50-	=50-	=50-	=50-	=50-	=50-	=50-	=50-
*M2/1	*	*M2/1	*	*M2/1	*	*M2/1	*
*met(C|)	*	*met(C|)	*	*met(C|)	*	*met(C|)	*
!	!	!	!	!	!	!LO:TX:t=P:problem:kreska pseudotaktowa	!
1GG	et	1.G	De-	2.B-\	Iſ-	1d	-el
!	!	!	!	!LO:TX:t=P:problem:kreska pseudotaktowa	!	!	!
.	.	.	.	4B-\	-ra-	.	.
2.E-X\	De-	.	.	2B-\	-el	1r	.
!	!	!LO:TX:t=P:problem:kreska pseudotaktowa	!	!	!	!	!
.	.	2G/	-us	1e-X\	De-	.	.
4D/	.	.	.	.	.	.	.
=51-	=51-	=51-	=51-	=51-	=51-	=51-	=51-
2C/	.	1.G	Iſ-	.	.	2cny/	De-
!LO:N:acc=#	!	!	!	!LO:TX:t=P:problem:kreska pseudotaktowa	!	!LO:TX:t=P:problem:kreska pseudotaktowa	!
2BBnX/	-us	.	.	2d\	-us	2d\	-us
2.C/	Iſ-	.	.	2.c\	Iſ-	2.e-X\	Iſ-
.	.	2G/	-ra-	.	.	.	.
4C/	-ra-	.	.	4c\	-ra-	4e-\	-ra-
=52-	=52-	=52-	=52-	=52-	=52-	=52-	=52-
!	!	!	!	!LO:N:acc=#	!	!	!
0GG	-el.	0G	-el.	0BnX	-el.	0d;	-el.
!LO:LB:g=original	!	!LO:LB:g=original	!	!LO:LB:g=original	!	!LO:LB:g=original	!
=||	=||	=||	=||	=||	=||	=||	=||
*-	*-	*-	*-	*-	*-	*-	*-
!!!system-decoration: [(s1,s2,s3,s4)]
!!!ENC: Marta Chmielewska
!!!END: 2021-03-19
!!!RDF**kern: < = below
!!!RDF**kern: > = above
!!!ENC:Berenika Jozajtis
!!!END:2021-03-03
